resources/payment_providers/payoneer/logo.svg

<?xml version="1.0" encoding="UTF-8"?>
<svg width="900pt" height="314pt" version="1.1" viewBox="0 0 900 314" xmlns="http://www.w3.org/2000/svg">
<defs>
<clipPath id="a">
<path d="m208 0h344v314h-344z"/>
</clipPath>
</defs>
<g clip-path="url(#a)">
<path class="py-logo-symbol" d="m229 25.5c1.1 25.1 22.8 120.9 22.8 120.9 8 19.4 14.8 0 14.8 0 26.3-78.7-27.4-124.3-27.4-124.3-13.6-8-10.2 3.4-10.2 3.4m311.3-13.7s26.3 18.3 0 21.7c0 0-98.1 11.4-171.1 79.8 0 0-109.4 95.8-150.5 200.7 0 0-13.7 0-9.1-20.5s31.9-110.6 153.9-221.2c0 0 117.5-107.2 176.8-60.5" fill="#ff4800"/>
</g>
<path class="py-logo-text" d="m41.3 163.6c4.4 0.9 8.3 1.4 14 1.4 22.3 0 37.4-14.4 37.4-32.7 0-16.4-11.6-22.3-26.7-22.3-6.6 0-11.6 0.4-14.8 1.3zm-12.5-71.2c9.3-2.3 23.3-3.7 37-3.7 14.4 0 29.4 3 39.5 11 8.9 6.8 14.1 16.9 14.1 30.6 0 18.2-8.6 33.1-19.6 41.8-12.3 9.8-29.9 14.6-48.2 14.6-5.5 0-10.3-0.7-14.4-1.1l-11.2 58.2h-26z"/>
<path class="py-logo-text" d="m190 151.7c-2.7-0.7-6.2-1.1-10.9-1.1-24.5 0-43.7 27.6-43.7 53 0 11.6 4.4 21.2 16 21.2 12.6 0 27.7-15.5 32.9-43.8zm-10.7 92.1c0-6.6 0.9-15.5 1.8-24.9h-0.4c-11 20.3-25.9 27.4-40 27.4-19.9 0-32.9-15.5-32.9-37.9 0-37.9 26.5-78.4 78.3-78.4 12.1 0 25.1 2.3 33.8 5.1l-11.6 58c-3.2 16.4-5 37.5-4.6 50.7z"/>
<path class="py-logo-text" d="m371.1 199.7c0 15.3 8 26.1 21.7 26.1 19.9 0 33.1-27.5 33.1-49.6 0-11.4-5.2-25.6-21.2-25.6-21.3 0-33.6 28.3-33.6 49.1m82.2-23.7c0 37.9-26.3 70.3-64.2 70.3-28.1 0-45.4-19.4-45.4-45.9 0-37.7 26.3-70.4 64.2-70.4 29.9 0 45.4 21.5 45.4 46"/>
<path class="py-logo-text" d="m458.3 243.8 14.4-76.7c2.8-13.3 4.4-25 5.7-34.5h23.8l-2.5 19.8h0.4c10.3-14.8 24.5-22.4 40-22.4 16 0 28.3 9.6 28.3 30.6 0 5.1-0.9 12.8-2 18.3l-12.2 64.9h-26.7l11.9-62.8c0.7-4.1 1.4-8.9 1.4-13.3 0-9.3-3.5-16-14-16-12.1 0-27.6 14.7-32.4 40.7l-9.6 51.4z"/>
<path class="py-logo-text" d="m639.2 149.9c-16.7 0-27.6 14.9-30.8 28.3 27.4 0.3 45-3.4 45-16.8 0-7.1-5.7-11.5-14.2-11.5m25.4 87.5c-11 5.7-25.9 8.9-39.3 8.9-30.9 0-45.7-18.9-45.7-46.1 0-33.6 24.6-70.2 63-70.2 22 0 35.9 12.6 35.9 31.4 0 28.5-29.9 37.6-72.9 36.7-0.4 3.9 0.5 11.4 3 15.8 4.3 7.5 12.3 11.4 22.8 11.4 12.6 0 22.7-3.2 30.7-7.3z"/>
<path class="py-logo-text" d="m742.6 149.9c-16.6 0-27.6 14.9-30.8 28.3 27.4 0.3 45-3.4 45-16.8 0-7.1-5.7-11.5-14.2-11.5m25.4 87.5c-11 5.7-25.8 8.9-39.3 8.9-30.8 0-45.7-18.9-45.7-46.1 0-33.6 24.7-70.2 63.1-70.2 21.9 0 35.9 12.6 35.9 31.4 0 28.5-30 37.6-72.9 36.7-0.5 3.9 0.4 11.4 2.9 15.8 4.4 7.5 12.4 11.4 22.9 11.4 12.6 0 22.6-3.2 30.6-7.3z"/>
<path class="py-logo-text" d="m783.5 243.8 13.1-68.5c2.9-15.8 4.5-32.9 5.6-42.7h23.1c-0.7 7.5-1.4 15.3-2.5 23.3h0.7c7.6-14.9 19.6-25.9 34.7-25.9 2.1 0 4.1 0.3 6 0.3l-5.3 26c-1.4-0.2-3.2-0.2-5-0.2-19 0-31.1 19.2-35.4 42.9l-8.5 44.8z"/>
<path class="py-logo-text" d="m884.4 142.7h1.9c2 0 3.3-1.1 3.3-2.8 0-1.9-1.3-2.7-3.4-2.7-0.9 0-1.5 0.1-1.8 0.2zm-1.9-6.7c0.9-0.2 2.3-0.3 3.6-0.3 2 0 3.4 0.4 4.3 1.2 0.7 0.7 1.1 1.7 1.1 2.9 0 1.9-1.2 3.2-2.7 3.7 1.1 0.4 1.8 1.5 2.1 3 0.5 2 0.9 3.5 1.2 4.1h-2c-0.3-0.5-0.6-1.7-1-3.6-0.4-2-1.2-2.8-2.9-2.8h-1.8v6.4h-1.9z"/>
<path class="py-logo-text" d="m886.8 130c-7.2 0-13.1 5.9-13.1 13.2s5.9 13.2 13.1 13.2c7.3 0 13.2-5.9 13.2-13.2s-5.9-13.2-13.2-13.2m0 2.1c6.2 0 11.1 4.9 11.1 11.1s-4.9 11.1-11.1 11.1c-6.1 0-11.1-4.9-11.1-11.1s5-11.1 11.1-11.1"/>
<style>#py-logo .py-logo-symbol {
        }

        #py-logo-text{
            fill: #333;
        }

        #py-logo #py-logo-text {
        
        }

        #py-logo.inverted #py-logo-text,
        .py-logo-inverted #py-logo-text {
            fill: #fff;
        }</style>
</svg>

<svg xmlns="http://www.w3.org/2000/svg" xmlns:xlink="http://www.w3.org/1999/xlink" width="900pt" height="314.003pt" viewBox="0 0 900 314.003" version="1.1">
    <defs>
        <clipPath id="py-logo-clip">
            <path d="M 208 0 L 552 0 L 552 314 L 208 314 Z M 208 0 "/>
        </clipPath>
    </defs>
    <g id="py-logo">
        <g clip-path="url(#py-logo-clip)" clip-rule="nonzero">
            <path class="py-logo-symbol" style="fill: #ff4800;" d="M 229 25.5 C 230.1 50.6 251.8 146.4 251.8 146.4 C 259.8 165.8 266.6 146.4 266.6 146.4 C 292.9 67.7 239.2 22.1 239.2 22.1 C 225.6 14.1 229 25.5 229 25.5 M 540.3 11.8 C 540.3 11.8 566.6 30.1 540.3 33.5 C 540.3 33.5 442.2 44.9 369.2 113.3 C 369.2 113.3 259.8 209.1 218.7 314 C 218.7 314 205 314 209.6 293.5 C 214.2 273 241.5 182.9 363.5 72.3 C 363.5 72.3 481 -34.9 540.3 11.8 "/>
        </g>
        <g id="py-logo-text">
            <path class="py-logo-text" d="M 41.3 163.6 C 45.7 164.5 49.6 165 55.3 165 C 77.6 165 92.7 150.6 92.7 132.3 C 92.7 115.9 81.1 110 66 110 C 59.4 110 54.4 110.4 51.2 111.3 Z M 28.8 92.4 C 38.1 90.1 52.1 88.7 65.8 88.7 C 80.2 88.7 95.2 91.7 105.3 99.7 C 114.2 106.5 119.4 116.6 119.4 130.3 C 119.4 148.5 110.8 163.4 99.8 172.1 C 87.5 181.9 69.9 186.7 51.6 186.7 C 46.1 186.7 41.3 186 37.2 185.6 L 26 243.8 L 0 243.8 Z M 28.8 92.4 "/>
            <path class="py-logo-text" d="M 190 151.7 C 187.3 151 183.8 150.6 179.1 150.6 C 154.6 150.6 135.4 178.2 135.4 203.6 C 135.4 215.2 139.8 224.8 151.4 224.8 C 164 224.8 179.1 209.3 184.3 181 Z M 179.3 243.8 C 179.3 237.2 180.2 228.3 181.1 218.9 L 180.7 218.9 C 169.7 239.2 154.8 246.3 140.7 246.3 C 120.8 246.3 107.8 230.8 107.8 208.4 C 107.8 170.5 134.3 130 186.1 130 C 198.2 130 211.2 132.3 219.9 135.1 L 208.3 193.1 C 205.1 209.5 203.3 230.6 203.7 243.8 Z M 179.3 243.8 "/>
            <path class="py-logo-text" d="M 371.1 199.7 C 371.1 215 379.1 225.8 392.8 225.8 C 412.7 225.8 425.9 198.3 425.9 176.2 C 425.9 164.8 420.7 150.6 404.7 150.6 C 383.4 150.6 371.1 178.9 371.1 199.7 M 453.3 176 C 453.3 213.9 427 246.3 389.1 246.3 C 361 246.3 343.7 226.9 343.7 200.4 C 343.7 162.7 370 130 407.9 130 C 437.8 130 453.3 151.5 453.3 176 "/>
            <path class="py-logo-text" d="M 458.3 243.8 L 472.7 167.1 C 475.5 153.8 477.1 142.1 478.4 132.6 L 502.2 132.6 L 499.7 152.4 L 500.1 152.4 C 510.4 137.6 524.6 130 540.1 130 C 556.1 130 568.4 139.6 568.4 160.6 C 568.4 165.7 567.5 173.4 566.4 178.9 L 554.2 243.8 L 527.5 243.8 L 539.4 181 C 540.1 176.9 540.8 172.1 540.8 167.7 C 540.8 158.4 537.3 151.7 526.8 151.7 C 514.7 151.7 499.2 166.4 494.4 192.4 L 484.8 243.8 Z M 458.3 243.8 "/>
            <path class="py-logo-text" d="M 639.2 149.9 C 622.5 149.9 611.6 164.8 608.4 178.2 C 635.8 178.5 653.4 174.8 653.4 161.4 C 653.4 154.3 647.7 149.9 639.2 149.9 M 664.6 237.4 C 653.6 243.1 638.7 246.3 625.3 246.3 C 594.4 246.3 579.6 227.4 579.6 200.2 C 579.6 166.6 604.2 130 642.6 130 C 664.6 130 678.5 142.6 678.5 161.4 C 678.5 189.9 648.6 199 605.6 198.1 C 605.2 202 606.1 209.5 608.6 213.9 C 612.9 221.4 620.9 225.3 631.4 225.3 C 644 225.3 654.1 222.1 662.1 218 Z M 664.6 237.4 "/>
            <path class="py-logo-text" d="M 742.6 149.9 C 726 149.9 715 164.8 711.8 178.2 C 739.2 178.5 756.8 174.8 756.8 161.4 C 756.8 154.3 751.1 149.9 742.6 149.9 M 768 237.4 C 757 243.1 742.2 246.3 728.7 246.3 C 697.9 246.3 683 227.4 683 200.2 C 683 166.6 707.7 130 746.1 130 C 768 130 782 142.6 782 161.4 C 782 189.9 752 199 709.1 198.1 C 708.6 202 709.5 209.5 712 213.9 C 716.4 221.4 724.4 225.3 734.9 225.3 C 747.5 225.3 757.5 222.1 765.5 218 Z M 768 237.4 "/>
            <path class="py-logo-text" d="M 783.5 243.8 L 796.6 175.3 C 799.5 159.5 801.1 142.4 802.2 132.6 L 825.3 132.6 C 824.6 140.1 823.9 147.9 822.8 155.9 L 823.5 155.9 C 831.1 141 843.1 130 858.2 130 C 860.3 130 862.3 130.3 864.2 130.3 L 858.9 156.3 C 857.5 156.1 855.7 156.1 853.9 156.1 C 834.9 156.1 822.8 175.3 818.5 199 L 810 243.8 Z M 783.5 243.8 "/>
            <path class="py-logo-text" d="M 884.4 142.7 L 886.3 142.7 C 888.3 142.7 889.6 141.6 889.6 139.9 C 889.6 138 888.3 137.2 886.2 137.2 C 885.3 137.2 884.7 137.3 884.4 137.4 Z M 882.5 136 C 883.4 135.8 884.8 135.7 886.1 135.7 C 888.1 135.7 889.5 136.1 890.4 136.9 C 891.1 137.6 891.5 138.6 891.5 139.8 C 891.5 141.7 890.3 143 888.8 143.5 L 888.8 143.5 C 889.9 143.9 890.6 145 890.9 146.5 C 891.4 148.5 891.8 150 892.1 150.6 L 890.1 150.6 C 889.8 150.1 889.5 148.9 889.1 147 C 888.7 145 887.9 144.2 886.2 144.2 L 884.4 144.2 L 884.4 150.6 L 882.5 150.6 Z M 882.5 136 "/>
            <path class="py-logo-text" d="M 886.8 130 C 879.6 130 873.7 135.9 873.7 143.2 C 873.7 150.5 879.6 156.4 886.8 156.4 C 894.1 156.4 900 150.5 900 143.2 C 900 135.9 894.1 130 886.8 130 M 886.8 132.1 C 893 132.1 897.9 137 897.9 143.2 C 897.9 149.4 893 154.3 886.8 154.3 C 880.7 154.3 875.7 149.4 875.7 143.2 C 875.7 137 880.7 132.1 886.8 132.1 "/>
        </g>
    </g>
    <style>
        #py-logo .py-logo-symbol {
        }

        #py-logo-text{
            fill: #333;
        }

        #py-logo #py-logo-text {
        
        }

        #py-logo.inverted #py-logo-text,
        .py-logo-inverted #py-logo-text {
            fill: #fff;
        }
    </style>

</svg>
